icons/unhealthy_food_fill.svg

<svg width="48" height="48" viewBox="0 0 48 48" fill="none" xmlns="http://www.w3.org/2000/svg">
<path fill-rule="evenodd" clip-rule="evenodd" d="M12.0677 20.1473L9.62842 11.0438L15.23 5.80745L17.0001 12.4093V8.78977L24.0001 6.64833V10.5416L30.0858 7.62947L30.0172 8.6399L31.2276 4H38.3442L35.5752 13.2299L37.3418 12.7784L35.1947 20.7918C35.3339 20.6574 35.4741 20.5208 35.6151 20.3819C35.8596 20.1414 36.1928 20 36.5357 20C37.3133 20 37.9149 20.6815 37.8185 21.4532L35.2191 42.2481C35.094 43.2489 34.2432 44 33.2346 44H14.7657C13.757 44 12.9062 43.2489 12.7811 42.2481L10.1824 21.4583C10.0856 20.6839 10.6894 20 11.4698 20C11.6785 20 11.8837 20.0522 12.0677 20.1473ZM31.5913 16.7667L34.4309 15.9148L32.4717 23.2267C31.3565 24.1345 30.2936 24.8767 29.2637 25.4536L31.5913 16.7667ZM26.7968 26.5359L27.8582 10.9127L25.2682 12.152L24.2621 26.9624C25.1027 26.943 25.9434 26.8009 26.7968 26.5359ZM19.0001 25.5438C20.0275 26.0984 21.0211 26.4908 22.0001 26.7207V9.35167L19.0001 10.2694V25.5438ZM14.7857 22.5635C15.5478 23.2115 16.2841 23.7881 17.0001 24.2931V20.1317L14.1613 9.54423L11.8709 11.6853L14.7857 22.5635ZM33.3137 13.8079L30.5518 14.5139L32.7727 6L35.6561 6L33.3137 13.8079Z" fill="black"/>
</svg>

<svg
  xmlns="http://www.w3.org/2000/svg"
  width="24"
  height="24"
  viewBox="0 0 24 24"
  fill="none"
  stroke="currentColor"
  stroke-width="2"
  stroke-linecap="round"
  stroke-linejoin="round"
>
  <path
    fill-rule="evenodd"
    d="m12.068 20.147-2.44-9.103 5.602-5.237L17 12.41V8.79l7-2.14v3.893l6.086-2.913-.069 1.01L31.227 4h7.117l-2.769 9.23 1.767-.452-2.147 8.014q.21-.202.42-.41a1.293 1.293 0 0 1 2.203 1.071L35.22 42.248A2 2 0 0 1 33.235 44h-18.47a2 2 0 0 1-1.984-1.752l-2.599-20.79a1.297 1.297 0 0 1 1.886-1.31m19.523-3.38 2.84-.852-1.96 7.312c-1.114.907-2.177 1.65-3.207 2.227zm-4.794 9.769 1.061-15.623-2.59 1.239-1.006 14.81a9.2 9.2 0 0 0 2.535-.426M19 25.544c1.027.554 2.021.947 3 1.177V9.35l-3 .918zm-4.214-2.98A31 31 0 0 0 17 24.294v-4.162L14.161 9.544l-2.29 2.141zm18.528-8.756-2.762.706L32.772 6h2.884z"
    clip-rule="evenodd"
  />
</svg>
